svgs/thin/folder-arrow-down.svg

<svg xmlns="http://www.w3.org/2000/svg" viewBox="0 0 512 512"><!--! Font Awesome Pro 6.3.0 by @fontawesome - https://fontawesome.com License - https://fontawesome.com/license (Commercial License) Copyright 2023 Fonticons, Inc. --><path d="M464 96h-192L217.4 41.38C211.4 35.37 203.2 32 194.7 32H48C21.49 32 0 53.49 0 80v352C0 458.5 21.49 480 48 480h416c26.51 0 48-21.49 48-48v-288C512 117.5 490.5 96 464 96zM496 432c0 17.67-14.33 32-32 32h-416c-17.67 0-32-14.33-32-32v-352c0-17.67 14.33-32 32-32h140.1c8.486 0 16.62 3.371 22.63 9.371L265.4 112H464c17.67 0 32 14.33 32 32V432zM250.3 389.7C251.8 391.1 253.8 392 256 392s4.213-.8984 5.66-2.348l95.1-95.1c3.125-3.125 3.125-8.188 0-11.31s-8.188-3.125-11.31 0L264 364.7V192c0-4.422-3.578-8-8-8S248 187.6 248 192v172.7L165.7 282.3C164.1 280.8 162 280 160 280S155.9 280.8 154.3 282.3c-3.125 3.125-3.125 8.188 0 11.31L250.3 389.7z"/></svg>

<svg xmlns="http://www.w3.org/2000/svg" viewBox="0 0 512 512"><!-- Font Awesome Pro 6.0.0-alpha2 by @fontawesome - https://fontawesome.com License - https://fontawesome.com/license (Commercial License) --><path d="M464 96H272L217.373 41.375C211.371 35.371 203.232 32 194.746 32H48C21.49 32 0 53.492 0 80V432C0 458.508 21.49 480 48 480H464C490.51 480 512 458.508 512 432V144C512 117.492 490.51 96 464 96ZM496 432C496 449.672 481.674 464 464 464H48C30.326 464 16 449.672 16 432V80C16 62.328 30.326 48 48 48H188.117C196.604 48 204.742 51.371 210.744 57.371L265.371 112H464C481.674 112 496 126.328 496 144V432ZM250.34 389.652C251.787 391.102 253.787 392 256 392S260.213 391.102 261.66 389.652L357.656 293.656C360.781 290.531 360.781 285.469 357.656 282.344S349.469 279.219 346.344 282.344L264 364.688V192C264 187.578 260.422 184 256 184S248 187.578 248 192V364.688L165.656 282.344C164.094 280.781 162.047 280 160 280S155.906 280.781 154.344 282.344C151.219 285.469 151.219 290.531 154.344 293.656L250.34 389.652Z"/></svg>
